!! 00000] TT[WS
!!!OTL: Fangxian hao
!!!ARE: Asia, China, Shanxi Zuoquan
!! Ethnic Group: Han
!! WII, 252 (2)
!!!SCT: J0778
!!!YEM: Copyright 1995, estate of Helmut Schaffrath.
**kern
*ICvox
*Ivox
*M2/4
*k[f#]
*G:
{4b
4a
=1
4b
4a
=2
8b
8a
8b
8e
=3
8g
8e
4g}
=4
{8b
8a
8b
8a
=5
8g
8b
4a
=6
8e
8e
8g
8B
=7
2d}
=8
{8b
8dd
8a
8g
=9
8e
8e
8g
8b
=10
2d}
==
!!!AGN: Xiaodiao. Laodong, Xinminge
!!!ONB: ESAC (Essen Associative Code) Database: CHINA
!!!AMT: simple duple
!!!AIN: vox
!!!EED: Helmut Schaffrath
!!!EEV: 1.0
*-
